X:1
T:Title
%%score ( 1 2 ) ( 3 4 )
L:1/8
Q:1/4=80
M:4/4
K:G
V:1 treble nm="Strings 1, Soprano"
V:2 treble 
V:3 bass nm="Strings 1, Bass"
V:4 bass 
V:1
 z4 z2 [DG]2 | [GB]2 [GB][DA] [DG]2 [DG]>[DA] | [GB]2 [Gd][Ge] [Gd]2 [GB]>[GB] | %3
w: 1.~The~|Lord~ is~ my~ light,~ and~ the~|strength~ of~ my~ life,~ Then~ of~|
 [FA]2 [FA][GB] [Bd]2 [Ac]2 | [GB]6 [GB]2 | [DG]2 [DG][DA] [GB]2 [GB]>[DA] | %6
w: whom~ shall~ I~ be~ a|fraid?~ He~|hid eth~ my~ soul~ from~ the~|
 [DG]2 [DG][DA] [GB]2 [Ge][Ge] | [Gd]2 [Gd]>[Gc] [GB]2 [FB][FA] | [DG]6 [Gd]2 | %9
w: trou bles~ that~ roll,~ In~ the~|cleft~ in~ the~ rock~ He~ has~|made.~ *|
 [Ge]2 [Gd][GB] [Gd]2 [GB][GB] | [Ac]2 [GB][FA] [GB]2 [GB]2 | AB[E^c][Fd] [Ge]2 [Gc][Gc] | %12
w: |||
 [Fd]6 [Fd]2 | [Gd]2 [Ge][Gd] [GB]2 [DG]2 | [EA]2 [EG][CE] [EG]2 [EG]2 | %15
w: |||
 [DB]2 [DB][DG] [GB][DA][DG][DF] | [DG]6 z2 |] %17
w: ||
V:2
 x8 | x8 | x8 | x8 | x8 | x8 | x8 | x8 | x8 | x8 | x8 | F2 z2 z4 | x8 | x8 | x8 | x8 | x8 |] %17
V:3
 z4 z2 [G,B,]2 | [G,D]2 [G,D][G,C] [G,B,]2 [G,B,]>[G,C] | [G,D]2 [G,B,][G,C] [G,B,]2 [G,D]>[G,D] | %3
 [D,D]2 [D,D][D,D] [D,D]2 [F,D]2 | [G,D]6 [G,D]2 | [G,B,]2 [G,B,][G,C] [G,D]2 [G,D]>[G,C] | %6
 [G,B,]2 [G,B,][G,C] [G,D]2 [C,C][C,C] | [B,,D]2 [B,,D]>[C,E] [D,D]2 [D,D][D,C] | %8
 [G,,G,B,]6 [G,B,]2 | [C,C]2 [G,B,][G,D] [G,B,]2 [G,D][G,D] | [D,D]2 [D,D][D,D] [G,D]2 [G,D]2 | %11
 [A,D]2 A,A, [A,,A,]2 [A,,A,][A,,A,] | [D,A,]6 [D,C]2 | [G,B,]2 [G,C][G,B,] [G,D]2 [G,B,]2 | %14
 [C,C]2 [C,C][C,G,] [C,G,]2 [C,G,]2 | [D,G,]2 [D,G,][D,B,] DC[D,B,][D,A,] | [G,,G,B,]6 z2 |] %17
V:4
 x8 | x8 | x8 | x8 | x8 | x8 | x8 | x8 | x8 | x8 | x8 | x8 | x8 | x8 | x8 | z4 D,2 z2 | x8 |] %17

